X: 15
T:Huntsman's Chorus,1st part. JNu.13
M:2/4
L:1/8
Q:150
S:James Nuttall MS,c1830,Rossendale,East Lancs.
R:Air
O:England
A:East Lancashire
N:at  make accent,at X there is a mysterious SIGN..CGP
Z:vmp.Manchester Morris Men
K:G
"primo"D|G2 G/A/B/c/|d2BB|.A.d.A.d|B/c/B/A/ GD|\
G2 G/A/B/c/|"crs"d-BB2|Adfe|d3:|!
|:A|B2BB|G2GG|c2cc|A2AA|B2BB|G2GG|c2cc|A2 zD|!
B2BB|c2BB|A2 B/A/G/A/|B2GG|\
B2 BB|dcBB|B/A/G/A/ BA|G3D|!
DD/D/ DD/D/|DD/D/ DD/D/|G2-DB|G2 DB|\
d/c/A d/c/A|d/c/A d/c/A|G2 DB|G2 DB|!
d/c/A d/c/A|d/c/A d/c/A|\
BG/B/ d2|BG/B/ d2|BG/G/ GB|A2-A2|G2-DB|G2 DB|!
dc/A/ dc/A/|dc/A/ dc/A/|G2 DB|G2 DB|\
dc/A/ dc/A/|dc/A/ dc/A/|BG/B/d2|BG/B/d2|!
BG/G/ GG|G3"X"d/d/|dB/B/ Bg/g/|gd/d/ db/b/|!
b2 a/g/f/e/|d2 Bd/d/|dB/B/ Bg/g/|\
gd/d/ db/b/|b2 a3/4g/4f3/4a/4|!
g3/4f/4g3/4^g/4 a3/4f/4d3/4f/4|\
g3/4f/4g3/4^g/4 a3/4f/4d3/4f/4|gg/g/ gb|g3:|]
